icon-themes/breeze_svg/cmd/lc_insertformhscroll.svg

<svg viewBox="0 0 24 24" xmlns="http://www.w3.org/2000/svg"><path d="m4 7v10h16v-10zm4.21875 1 .78125.59375-2.75 3.40625 2.75 3.40625-.78125.59375-2.96875-3.71875-.25-.28125.25-.28125zm7.5625 0 3 3.71875.21875.28125-.21875.28125-3 3.71875-.78125-.59375 2.75-3.40625-2.75-3.40625z" fill="#4d4d4d"/><path d="m11 8v8h2v-8z" fill="#1d99f3"/></svg>

<svg xmlns="http://www.w3.org/2000/svg" viewBox="0 0 24 24">
 <path 
     style="fill:#4d4d4d" 
     d="M 4 7 L 4 17 L 20 17 L 20 7 L 4 7 z M 8.21875 8 L 9 8.59375 L 6.25 12 L 9 15.40625 L 8.21875 16 L 5.25 12.28125 L 5 12 L 5.25 11.71875 L 8.21875 8 z M 15.78125 8 L 18.78125 11.71875 L 19 12 L 18.78125 12.28125 L 15.78125 16 L 15 15.40625 L 17.75 12 L 15 8.59375 L 15.78125 8 z "
     />
 <path 
     style="fill:#1d99f3" 
     d="M 11 8 L 11 16 L 13 16 L 13 8 L 11 8 z "
     />
 </svg>
